icons/inbox-help.svg

<svg xmlns="http://www.w3.org/2000/svg" width="24" height="24" viewBox="0 0 24 24">
  <path d="M6,16 L6.11662113,16.0067277 C6.61395981,16.0644928 7,16.4871642 7,17 C7,18.5976809 8.24891996,19.9036609 9.82372721,19.9949073 L10,20 L14,20 L14.1762728,19.9949073 C15.6927538,19.9070404 16.9070404,18.6927538 16.9949073,17.1762728 L17,17 L17.0067277,16.8833789 C17.0600494,16.424297 17.424297,16.0600494 17.8833789,16.0067277 L18,16 L22,16 L22,20 C22,21.1045695 21.1045695,22 20,22 L4,22 C2.8954305,22 2,21.1045695 2,20 L2,16 L6,16 Z M20,2 C21.1045695,2 22,2.8954305 22,4 L22,14 L18,14 L17.8237272,14.0050927 C16.24892,14.0963391 15,15.4023191 15,17 C15,17.5128358 14.6139598,17.9355072 14.1166211,17.9932723 L14,18 L10,18 L9.88337887,17.9932723 C9.42429701,17.9399506 9.06004937,17.575703 9.00672773,17.1166211 L9,17 L8.99490731,16.8237272 C8.90704038,15.3072462 7.69275384,14.0929596 6.17627279,14.0050927 L6,14 L2,14 L2,4 C2,2.8954305 2.8954305,2 4,2 L20,2 Z M12.0001686,11 C11.4478886,11 11.0001686,11.4477 11.0001686,12 C11.0001686,12.5523 11.4478886,13 12.0001686,13 C12.5524586,13 13.0001686,12.5523 13.0001686,12 C13.0001686,11.4477 12.5524586,11 12.0001686,11 Z M12.0001686,5 C11.3689286,5 10.8456386,5.15996 10.4278886,5.43846 C10.0148386,5.71383 9.74882858,6.07562 9.57934858,6.41459 C9.39409858,6.78507 9.54426858,7.23558 9.91475858,7.42082 C10.2852386,7.60606 10.7357486,7.45589 10.9209886,7.08541 C11.0014986,6.92438 11.1104886,6.78617 11.2599386,6.68654 C11.4046986,6.59004 11.6314086,6.5 12.0001686,6.5 C12.2799186,6.5 12.5530786,6.58656 12.7376686,6.725 C12.9022286,6.84842 13.0001686,7.01009 13.0001686,7.25 C13.0001686,7.42662 12.9593586,7.51381 12.9229986,7.56835 C12.8776486,7.63639 12.7994086,7.71162 12.6466286,7.81349 C12.5702386,7.86441 12.4880486,7.9139 12.3877086,7.97411 L12.3815586,7.9778 C12.2878586,8.03402 12.1772086,8.10041 12.0684786,8.1729 C11.8462486,8.32107 11.5807386,8.52712 11.3760986,8.83412 C11.1463586,9.17878 11.2395186,9.64442 11.5841786,9.87417 C11.9288386,10.10391 12.3944886,10.01075 12.6242286,9.66609 C12.6695886,9.59803 12.7478286,9.52279 12.9005986,9.42093 C12.9769786,9.37001 13.0591686,9.32052 13.1594986,9.26032 L13.1657686,9.25656 C13.2594286,9.20036 13.3700286,9.134 13.4787086,9.06154 C13.7009186,8.91339 13.9664386,8.70737 14.1710686,8.4004 C14.3847686,8.07994 14.5001686,7.69838 14.5001686,7.25 C14.5001686,6.48991 14.1397686,5.90158 13.6376686,5.525 C13.1555886,5.16344 12.5537486,5 12.0001686,5 Z"/>
</svg>

<svg xmlns="http://www.w3.org/2000/svg" viewBox="0 0 24 24">
  <path d="M6 16h.12A1 1 0 0 1 7 17a3 3 0 0 0 2.82 3h4.36a3 3 0 0 0 2.81-2.82L17 17v-.12a1 1 0 0 1 .88-.87L18 16h4v4a2 2 0 0 1-2 2H4a2 2 0 0 1-2-2v-4h4zM20 2a2 2 0 0 1 2 2v10h-4.18A3 3 0 0 0 15 17a1 1 0 0 1-.88 1H9.88a1 1 0 0 1-.87-.88L9 17v-.18a3 3 0 0 0-2.82-2.81L6 14H2V4c0-1.1.9-2 2-2h16zm-8 9a1 1 0 1 0 0 2 1 1 0 0 0 0-2zm0-6c-.63 0-1.15.16-1.57.44a2.5 2.5 0 0 0-.85.97.75.75 0 1 0 1.34.68 1 1 0 0 1 .34-.4c.14-.1.37-.19.74-.19.28 0 .55.09.74.22.16.13.26.29.26.53 0 .18-.04.26-.08.32a.96.96 0 0 1-.27.24l-.26.16-.32.2c-.22.15-.49.36-.7.66a.75.75 0 0 0 1.25.84.96.96 0 0 1 .28-.25l.26-.16.32-.2a2.03 2.03 0 0 0 1.02-1.81 2.1 2.1 0 0 0-.86-1.72A2.76 2.76 0 0 0 12 5z"/>
</svg>
